!!!COM: Music21
!!!OTL: polka_Tir-Tairngiri
!!!OMV: polka_Tir-Tairngiri
**kern
*clefG2
*k[f#c#g#]
*A:
*M2/4
=1
16g#
=
16g#LL
16a
16f#
16c#JJ
4ryy
=
16eLL
16f#
16a
16bJJ
4ryy
=
16cc#LL
16b
16b
16aJJ
4ryy
=
16bLL
16cc#J
8eeJ
4ryy
=
16g#LL
16a
16f#
16c#JJ
4ryy
=
16eLL
16f#
16a
16bJJ
4ryy
=
16cc#LL
16b
16b
16aJJ
4ryy
!!linebreak:original
=
8.bL
16cc#Jk
4ryy
=||
*M2/4
16g#
=
16g#LL
16a
16f#
16c#JJ
4ryy
=
16eLL
16f#
16a
16bJJ
4ryy
=
16cc#LL
16b
16b
16aJJ
4ryy
=
16bLL
16cc#J
8eeJ
4ryy
=
16g#LL
16a
16f#
16c#JJ
4ryy
=
16eLL
16f#
16a
16bJJ
4ryy
!!linebreak:original
=
16cc#LL
16b
16b
16aJJ
4ryy
=
16bLL
32aL
32bJJ
8cc#J
4ryy
=||
16r
16ff#LL
16ff#
16cc#JJ
4ryy
=
16eeLL
16ff#
16b
16aJJ
4ryy
=
16cc#LL
16b
16a
16eJJ
4ryy
=
16f#LL
16bJ
8bJ
4ryy
=
16r
16ff#LL
16ff#
16cc#JJ
4ryy
=
16eeLL
16ff#
16b
16aJJ
4ryy
!!linebreak:original
=
16cc#LL
16b
16a
16eJJ
4ryy
=
16g#LL
16aJ
8f#J
4ryy
=
16r
16ff#LL
16ff#
16cc#JJ
4ryy
=
16eeLL
16ff#
16b
16aJJ
4ryy
=
16cc#LL
16b
16a
16eJJ
4ryy
=
16f#LL
16bJ
8bJ
4ryy
=
16aaLL
16ff#
16ff#
16eeJJ
4ryy
=
16ff#LL
16ee
16cc#
16bJJ
4ryy
!!linebreak:original
=
16aLL
16f#
16f#
16eJJ
4ryy
=
8.f#
4ryy
16ryy
=||
*-
